X:187
T: ES WAR EINE SCHOENE JUEDIN
N: E0098
O: Europa, Mitteleuropa, Deutschland, Oberrhein
R: erzaehlendes Volks - Lied, Sage, Liebe, Leid
M: 4/4
L: 1/8
K: D
D2 | D2FGA2EG | F2E2D2
A2 | AdcBc2B2 | A4z2
A2 | A2A2d2B2 | A4F2
FG | A2A2d2B2 | A4F2
BA | G3FG2A2 | F4z2
A2 | A2A2d2B2 | A4F2
FG | A2A2d2B2 | A4F2
BA | G3FG2A2 | F4z2

